X: 21
I: linebreak $
T: Bransle Official
C: Arbeau
K: C major
M: 4/4
L: 1/8
 |: "C"c2c2 "G"dcBA | "C"G6G2 | "F"ABc2 "Gsus4"c2B2 | "C"c4 c4 :: "C"g3f efge | "Bb"f3e defd | 
"Am"e3d cdec | "G"d3c BcdB | "F"c3B ABcA | "G"B3A G2G2 | "C"AB"Gsus4"c4B2 | "C"c4 c4 :| 




